!!!!SEGMENT: pl-gd--ee-1638--007-016_marenzio-luca--il-terzo-libro-de-madrigalia-a-sei-voci-dai-bei-labri.krn
!!!cenid: 15xx:857
!!!COM: Marenzio, Luca
!!!COM-rismID: pe30003955
!!!CDT: ~1553-1599/08/22
!!!CNT: Italian
!!!GTL: Il Terzo Libro de madrigalia a sei voci
!!!OTL: Dai bei labri
!!!OMV: 016
!!!PDT: 1585
!!!AGN:
!!!YEC: Copyright 2022 Narodowy Instytut Fryderyka Chopina (https://polishscores.org)
!!!YEM: License CC-BY-4.0 (https://creativecommons.org/licenses/by/4.0)
!!!SMS-siglum: PL-GD
!!!SMS-shelfmark: Ee 1638
!!!SMS-variant:
!!!SMS-altvar:
!!!SMS-shelfwork: 007-016 G
!!!NIFC-rismSourceID: 1001202747
!!!NIFC-rismChildID: 990039250
!!!NIFC-islandoraID: pl-gd:57883
!!!URL-pdf-islandora: https://repozytorium.nifc.pl/islandora/object/pl-gd%3A57883/datastream/PDF/view
!!!URL-scan: https://polish.musicsources.pl/pl/lokalizacje/galeria/klocki-introligatorskie/655 @EN{Scan on Polish Music Sources Website} @PL{Skany w portalu Dziedzictwo Muzyki Polskiej w otwartym dostępie}
!!!IIIF: https://repozytorium.nifc.pl/islandora/object/pl-gd%3A57883/datastream/IIIF/view
!!!ONB-nifc: UWAGA: zbiór na stronach: Canto: s. 694-704, Alto: s. 542-552, Tenore: s. 390-400, Basso: s. 237-248, Quinto: s. 85-96, Sesto: s. 3-14. Uwaga: utwory podzielone wg tytułów w spisach treści dostępnych na końcu każdej księgi głosowej.
!!!AIN: 1 alto 1 bass 2 soprn 2 tenor
!!!key: F:lyd
**kern	**text	**kern	**text	**kern	**text	**kern	**text	**kern	**text	**kern	**text
*part6	*	*part5	*	*part4	*	*part3	*	*part2	*	*part1	*
*staff6	*	*staff5	*	*staff4	*	*staff3	*	*staff2	*	*staff1	*
*I"Sesto	*	*I"Quinto	*	*I"Basso	*	*I"Tenore	*	*I"Alto	*	*I"Canto	*
*I'S	*	*I'Q	*	*I'B	*	*I'T	*	*I'A	*	*I'C	*
*Itenor	*	*Isoprn	*	*Ibass	*	*Itenor	*	*Ialto	*	*Isoprn	*
*ICvox	*	*ICvox	*	*ICvox	*	*ICvox	*	*Cvox	*	*ICvox	*
*clefC4	*	*clefC1	*	*clefF4	*	*clefC4	*	*clefC3	*	*clefC1	*
*k[b-]	*	*k[b-]	*	*k[b-]	*	*k[b-]	*	*k[b-]	*	*k[b-]	*
*F:lyd	*	*F:lyd	*	*F:lyd	*	*F:lyd	*	*F:lyd	*	*F:lyd	*
*M2/1	*	*M2/1	*	*M2/1	*	*M2/1	*	*M2/1	*	*M2/1	*
=1-	=1-	=1-	=1-	=1-	=1-	=1-	=1-	=1-	=1-	=1-	=1-
*xywh-#12:937,622,3331,821	*	*xywh-#94:1100,550,3361,870	*	*xywh-#246:1296,569,3333,881	*	*xywh-#398:1377,560,3276,767	*	*xywh-#550:1175,629,3338,739	*	*xywh-#702:1211,588,3349,753	*
!	!	!	!	!	!	!	!	!	!	!LO:TX:a:B:t=Prestissimo	!
0r	.	0r	.	00r	.	0r	.	1f	Da'i	2r	.
.	.	.	.	.	.	.	.	.	.	2f/	Dai
.	.	.	.	.	.	.	.	2e\	bei	2g/	bei
.	.	.	.	.	.	.	.	2.f\	la-	2.a\	la-
=2-	=2-	=2-	=2-	=2-	=2-	=2-	=2-	=2-	=2-	=2-	=2-
1f	Dai	2r	.	.	.	1r	.	.	.	.	.
.	.	.	.	.	.	.	.	4f\	-bri	4a\	-bri
.	.	2f/	Dai	.	.	.	.	2d\	di	2bn\	di
2e\	bei	2g/	bei	.	.	2r	.	2c/	ro-	2cc\	ro-
2.f\	la-	2.a\	la-	.	.	4r	.	2F/	-ſe	2cc\	-ſe
.	.	.	.	.	.	4.F/	au-	.	.	.	.
=3-	=3-	=3-	=3-	=3-	=3-	=3-	=3-	=3-	=3-	=3-	=3-
.	.	.	.	1r	.	.	.	1r	.	1r	.
.	.	.	.	.	.	8F/	-ra	.	.	.	.
4f\	-bri	4a\	-bri	.	.	4F/	tran-	.	.	.	.
2d\	di	2bn\	di	.	.	2G/	-quil-	.	.	.	.
2c\	ro-	4cc\	ros'-	4r	.	1A	-la	4r	.	4r	.
.	.	4.a\	-Au-	4.F\	Au-	.	.	4.f\	au-	4.cc\	au-
2F/	-se	.	.	.	.	.	.	.	.	.	.
.	.	8a\	-ra	8F\	-ra	.	.	8f\	-ra	8cc\	-ra
.	.	4a\	tran-	4F\	tran-	.	.	4f\	tran-	4dd\	tran-
=4-	=4-	=4-	=4-	=4-	=4-	=4-	=4-	=4-	=4-	=4-	=4-
0r	.	1g	-quil-	1G	-quil-	00r	.	1d	-quil-	1b-ny	-quil-
.	.	1e	-la	1A	-la	.	.	1c#X	-la	1a	-la
=5-	=5-	=5-	=5-	=5-	=5-	=5-	=5-	=5-	=5-	=5-	=5-
4.A/	Au-	4.f#X/	Au-	4.D/	Qu-	.	.	4.d\	Au-	0r	.
8A/	-ra	8f#/	-ra	8D/	-ra	.	.	8d\	-ra	.	.
!	!	!LO:SIC:v:t=custos a	!	!	!	!	!	!LO:SIC:v:t=custos f	!	!	!
4c\	ſo-	4g/	ſo-	4C/	ſo-	.	.	4e\	ſo-	.	.
!	!	!LO:LB:g=original	!	!	!	!	!	!	!	!	!
!	!	!	!	!	!	!	!	!LO:LB:g=original	!	!	!
*	*	*xywh-#94:1091,1238,3370,670	*	*	*	*	*	*xywh-#550:1188,1306,3379,608	*	*	*
2c\	-aue	2a\	-au'-	2F\	-au'	.	.	2f\	-au'	.	.
4B-\	hor	4g/	-hor	4G\	hor	.	.	4d\	hor	.	.
!LO:SIC:v:t=custos B	!	!	!	!LO:SIC:v:t=custos BB	!	!	!	!	!	!	!
2B-\	mo-	2g/	mo-	2E-X\	mo-	.	.	2e-X\	mo-	.	.
=6-	=6-	=6-	=6-	=6-	=6-	=6-	=6-	=6-	=6-	=6-	=6-
!	!	!	!	!LO:LB:g=original	!	!	!	!	!	!	!
!LO:LB:g=original	!	!	!	!	!	!	!	!	!	!	!
*xywh-#12:929,1295,3340,690	*	*	*	*xywh-#246:1305,1250,3359,680	*	*	*	*	*	*	*
1B-	-ui	1fny	-ui	2BB-/	-ui	2r	.	1d	-ui	2r	.
.	.	.	.	2B-\	E	2d\	E	.	.	4r	.
!	!	!	!	!	!	!	!	!	!	!LO:SIC:v:t=custos cc	!
.	.	.	.	.	.	.	.	.	.	4dd\	E
!	!	!	!	!	!	!	!	!	!	!LO:LB:g=original	!
*	*	*	*	*	*	*	*	*	*	*xywh-#702:1205,1242,3349,634	*
2r	.	2r	.	4.A\	con	4.e\	con	2r	.	4.cc\	con
!	!	!	!	!	!	!LO:SIC:v:t=custos f	!	!	!	!	!
.	.	.	.	8G\	A-	8e\	A-	.	.	8b-\	A-
!	!	!	!	!	!	!LO:LB:g=original	!	!	!	!	!
*	*	*	*	*	*	*xywh-#398:1343,1223,3317,663	*	*	*	*	*
4r	.	4r	.	4F\	-mor	2f\	-mor	4r	.	4a\	-mor
4B-\	E	4dd\	E	4BB-/	t'in-	.	.	4d\	E	4f/	t'in-
=7-	=7-	=7-	=7-	=7-	=7-	=7-	=7-	=7-	=7-	=7-	=7-
4.A/	con	4.cc\	con	2F\	-ſtil-	2r	.	4f\	con	2a\	-ſtil-
.	.	.	.	.	.	.	.	4f\	A-	.	.
8G/	A-	8b-ny\	A-	.	.	.	.	.	.	.	.
4F/	-mor	4a\	-mor	4F\	-la	4r	.	2f\	-mor	4cc\	-la
4BB-/	t'in-	4f/	t'in-	4B-\	E	4d\	E	.	.	4dd\	E
2F/	-ſtil-	2a\	-ſtil-	4.A\	con	4f\	con	2r	.	4.cc\	con
.	.	.	.	.	.	4f\	A-	.	.	.	.
.	.	.	.	8G\	A-	.	.	.	.	8b-\	A-
4F/	-la	4cc\	-la	4F\	-mor	2f\	-mor	4r	.	4a\	-mor
4B-\	/E	4dd\	/E	4BB-/	t'in-	.	.	4d\	E	4f/	E
=8-	=8-	=8-	=8-	=8-	=8-	=8-	=8-	=8-	=8-	=8-	=8-
4.A/	con	4.cc\	con	2F\	-ſtil-	00r	.	4f\	con	4.a\	con
.	.	.	.	.	.	.	.	4f\	A-	.	.
8G/	A-	8b-\	A-	.	.	.	.	.	.	8b-\	A-
4F/	-mor	4a\	-mor	2F\	-la	.	.	4f\	-mor	4cc\	-mor
4BB-/	t'in	4f/	t'in-	.	.	.	.	4d\	t'in-	4b-\	t in-
2F/	stil-	2f/	-stil-	1r	.	.	.	2cny/	-ſtil-	2a\	-ſtil-
2F/	-la/	2f/	-la/	.	.	.	.	2c/	-la	2a\	-la
=9-	=9-	=9-	=9-	=9-	=9-	=9-	=9-	=9-	=9-	=9-	=9-
4c\	mil-	4e/	mil-	0r	.	.	.	1r	.	1r	.
4c\	-le e	4e/	-le e	.	.	.	.	.	.	.	.
!	!	!LO:SIC:v:t=custos d	!	!	!	!	!	!	!	!	!
4Bn\	mil-	4d/	mil-	.	.	.	.	.	.	.	.
!	!	!LO:LB:g=original	!	!	!	!	!	!	!	!	!
*	*	*xywh-#94:1065,1761,3361,714	*	*	*	*	*	*	*	*	*
8B\	-le	8d/	-le	.	.	.	.	.	.	.	.
!LO:SIC:v:t=custos c	!	!	!	!	!	!	!	!	!	!	!
8B\	pia-	8d/	pia-	.	.	.	.	.	.	.	.
!LO:LB:g=original	!	!	!	!	!	!	!	!	!	!	!
*xywh-#12:902,1846,3419,699	*	*	*	*	*	*	*	*	*	*	*
2c\	-cer	2g/	-cer	.	.	.	.	4eny\	Mil-	4cc\	Mil-
!	!	!	!	!	!	!	!	!	!	!LO:SIC:v:t=custos b	!
.	.	.	.	.	.	.	.	4e\	-le e	4cc\	-le e
!	!	!	!	!	!	!	!	!LO:SIC:v:t=custos d	!	!	!
!	!	!	!	!	!	!	!	!	!	!LO:LB:g=original	!
*	*	*	*	*	*	*	*	*xywh-#550:1182,1846,3359,628	*	*xywh-#702:1205,1790,3369,640	*
2r	.	2r	.	.	.	.	.	4d\	mil-	4bn\	mil-
.	.	.	.	.	.	.	.	8d\	-le	8b\	-le
.	.	.	.	.	.	.	.	8d\	pia-	8b\	pia-
=10-	=10-	=10-	=10-	=10-	=10-	=10-	=10-	=10-	=10-	=10-	=10-
4c\	/mil-	4e/	Mil-	2C/	di-	0r	.	1g	-cer	2cc\	-cer
4c\	-le e	4e/	-le e	.	.	.	.	.	.	.	.
4Bn\	mil-	4d/	mil-	2G\	-uer-	.	.	.	.	2r	.
8B\	-le 	8d/	-le	.	.	.	.	.	.	.	.
8B\	pia-	8d/	pia-	.	.	.	.	.	.	.	.
!	!	!	!	!LO:SIC:v:t=custos GG	!	!	!	!	!	!	!
4c\	-cer/	1g	-cer	2C/	-ſi e	.	.	4e\	/mil-	4cc\	/mil-
2G/	mil-	.	.	.	.	.	.	4e\	-le e	4cc\	-le e
!	!	!	!	!LO:LB:g=original	!	!	!	!	!	!	!
*	*	*	*	*xywh-#246:1296,1782,3350,698	*	*	*	*	*	*	*
.	.	.	.	2GG/	nuo-	.	.	4d\	mil-	4bn\	mil-
4G/	-le e	.	.	.	.	.	.	8d\	-le	8b\	-le
.	.	.	.	.	.	.	.	8g\	pia-	8b\	pia-
=11-	=11-	=11-	=11-	=11-	=11-	=11-	=11-	=11-	=11-	=11-	=11-
4G/	mil-	4e/	/Mil-	4C/	-ni	4c\	Mil-	2g\	-cer/	2cc\	-cer/
8G/	-le	4e/	-le e	4C/	di-	4c\	-le e	.	.	.	.
8G/	pia-	.	.	.	.	.	.	.	.	.	.
1G	-cer	4d/	mil-	2G\	-uer-	4Bn\	mil-	4g\	mil-	4dd\	Mil-
.	.	8d/	-le	.	.	8B\	-le	4g\	-le e	4dd\	-le e
.	.	8d/	pia-	.	.	8B\	pia-	.	.	.	.
.	.	4g/	-cer/	2C/	-ſi e	2c\	-cer	4e\	mil-	4cc\	mil-
.	.	4g/	di-	.	.	.	.	8e\	-le	8cc\	-le
.	.	.	.	.	.	.	.	8e\	pia-	8cc\	pia-
2.G/	di-	2g/	-uer-	2GG/	nuo-	4r	.	4d\	-cer	4bn\	-cer
.	.	.	.	.	.	4d\	di-	4g\	di-	4b\	di-
=12-	=12-	=12-	=12-	=12-	=12-	=12-	=12-	=12-	=12-	=12-	=12-
.	.	2g/	-ſi	2C/	-ni	4c\	-uer-	2e\	-uer-	2cc\	-uer-
2c\	-uer-	.	.	.	.	4C/	-ſi e	.	.	.	.
.	.	4r	.	2r	.	8F/	nu-	4c/	-ſi e	2a\	-ſi e
.	.	.	.	.	.	8G/	-o-	.	.	.	.
4F/	-ſi e	4cc\	e	.	.	8A\	.	2f\	nu-	.	.
!	!	!	!	!	!	!LO:SIC:v:t=custos c	!	!	!	!	!
.	.	.	.	.	.	8B-ny\	.	.	.	.	.
!	!	!	!	!	!	!	!	!	!	!LO:SIC:v:t=custos a	!
!	!	!	!	!	!	!LO:LB:g=original	!	!	!	!	!
*	*	*	*	*	*	*xywh-#398:1349,1769,3297,677	*	*	*	*	*
1C	nuo-	1cc	nuo-	1r	.	1c	.	.	.	1g	nuo-
.	.	.	.	.	.	.	.	8e\	-o-	.	.
!	!	!	!	!	!	!	!	!LO:SIC:v:t=custos e	!	!	!
.	.	.	.	.	.	.	.	8d\	.	.	.
.	.	.	.	.	.	.	.	2e\	.	.	.
=13-	=13-	=13-	=13-	=13-	=13-	=13-	=13-	=13-	=13-	=13-	=13-
!	!	!	!	!	!	!	!	!LO:LB:g=original	!	!	!
!	!	!	!	!	!	!	!	!	!	!LO:LB:g=original	!
*	*	*	*	*	*	*	*	*xywh-#550:1188,2385,3338,642	*	*xywh-#702:1198,2338,3356,647	*
1F	-ui	1cc	-ui	1r	.	1c	-ui	1f	-ui	1a	-ui
2r	.	2r	.	2r	.	1r	.	2r	.	2r	.
1B-ny\	Dol-	1b-\	Dol-	1BB-/	Dol-	.	.	1f\	Dol-	1dd\	Dol-
=14-	=14-	=14-	=14-	=14-	=14-	=14-	=14-	=14-	=14-	=14-	=14-
!LO:SIC:v:t=custos B	!	!LO:SIC:v:t=custos b	!	!	!	!	!	!	!	!	!
.	.	.	.	.	.	0r	.	.	.	.	.
!	!	!LO:LB:g=original	!	!	!	!	!	!	!	!	!
!LO:LB:g=original	!	!	!	!	!	!	!	!	!	!	!
*xywh-#12:902,2406,3357,664	*	*xywh-#94:1048,2292,3413,731	*	*	*	*	*	*	*	*	*
4.B-\	-ce	4b-\	-ce	2BB-/	-ce	.	.	4f\	-ce	4.dd\	-ce
.	.	4f/	ſpi-	.	.	.	.	4d\	ſpi-	.	.
8A/	ſpi-	.	.	.	.	.	.	.	.	8cc\	ſpi-
4G/	-ran-	4g/	-ran-	1r	.	.	.	4d\	-ran-	4b-\	-ran-
4F#X/	-do	4a\	-do	.	.	.	.	4d\	-do	4a\	-do
2G/	pio-	2b-\	pio-	.	.	.	.	2d\	pio-	2g/	pio-
=15-	=15-	=15-	=15-	=15-	=15-	=15-	=15-	=15-	=15-	=15-	=15-
2D/	-ui	2a\	-ui	2r	.	2r	.	1d	-ui	2f#X/	-ui
1B-	Dol-	1f	Dol-	1BB-	Dol-	1d	Dol-	.	.	1dd	Dol-
.	.	.	.	.	.	.	.	1r	.	.	.
4.B-\	-ce	4f/	-ce	2BB-/	-ce	4d\	-ce	.	.	4.dd\	-ce
.	.	4f/	ſpi-	.	.	4d\	ſpi-	.	.	.	.
8A/	ſpi-	.	.	.	.	.	.	.	.	8cc\	ſpi-
=16-	=16-	=16-	=16-	=16-	=16-	=16-	=16-	=16-	=16-	=16-	=16-
4G/	-ran-	4g\	-ran-	0r	.	4d\	-ran-	1ryy	.	4b-\	-ran-
4F#X/	-do	4a\	-do	.	.	4d\	-do	.	.	4a\	-do
1G	fioc-	1b-	fioc-	.	.	1d	fioc-	.	.	1g	fioc-
.	.	.	.	.	.	.	.	1r	.	.	.
2D/	-ca	2a\	-ca	.	.	2d\	-ca	.	.	2f#X/	-ca
=17-	=17-	=17-	=17-	=17-	=17-	=17-	=17-	=17-	=17-	=17-	=17-
1r	.	4f#X/	Dall'	4D/	Dall'	0r	.	4d\	Dall'	4a\	Dall'
.	.	4f#/	an-	4D/	an-	.	.	4d\	an-	4a\	an-
.	.	4.f#/	-ge-	4.D/	-ge-	.	.	4.d\	-ge-	4.a\	-ge-
.	.	8f#/	-li-	8D/	-li-	.	.	8d\	-li-	8a\	-li-
!	!	!	!	!LO:SIC:v:t=custos F	!	!	!	!	!	!LO:SIC:v:t=custos cc	!
1r	.	4g/	-ca	4G\	-ca	.	.	4d\	-ca	4b-\	-ca
!	!	!LO:SIC:v:t=custos g	!	!	!	!	!	!	!	!	!
!	!	!	!	!	!	!	!	!	!	!LO:LB:g=original	!
!	!	!	!	!LO:LB:g=original	!	!	!	!	!	!	!
*	*	*	*	*xywh-#246:1305,2314,3324,715	*	*	*	*	*	*xywh-#702:1211,2860,3369,706	*
.	.	2a\	boc-	2F\	boc-	.	.	2f\	bocc'	2cc\	bocc'
!	!	!LO:LB:g=original	!	!	!	!	!	!	!	!	!
*	*	*xywh-#94:1039,2893,3405,687	*	*	*	*	*	*	*	*	*
.	.	4g/	-c;on-	4Eny\	-c'on-	.	.	4c/	on-	4cc\	on-
=18-	=18-	=18-	=18-	=18-	=18-	=18-	=18-	=18-	=18-	=18-	=18-
2r	.	4cc\	-d;ie	4F\	-d'io	2r	.	4c/	-d'io	4a\	-d'io
.	.	8r	.	8r	.	.	.	8r	.	8r	.
.	.	8dd\	ſoſ-	8D/	ſoſ-	.	.	8f\	ſoſ-	8a\	ſoſ-
!	!	!	!	!	!	!	!	!LO:SIC:v:t=custos d	!	!	!
4r	.	2cc#X\	-pi-	2A\	-pi-	4r	.	2e\	-pi-	2a\	-pi-
4A/	On-	.	.	.	.	4e\	On-	.	.	.	.
!	!	!	!	!	!	!	!	!LO:LB:g=original	!	!	!
*	*	*	*	*	*	*	*	*xywh-#550:1230,2931,3297,628	*	*	*
4A/	-d'io	2dd\	-ro	2D/	-ro	4f\	-d'io	4d\	-ro	2a\	-ro
8r	.	.	.	.	.	8r	.	4A/	Ond'	.	.
8d\	reſ-	.	.	.	.	8f\	re-	.	.	.	.
!LO:SIC:v:t=custos d	!	!	!	!	!	!	!	!	!	!	!
2c#X\	-pi-	2r	.	4r	.	2e\	-ſpi-	2A/	io	4r	.
.	.	.	.	4AA/	On-	.	.	.	.	4a\	On-
=19-	=19-	=19-	=19-	=19-	=19-	=19-	=19-	=19-	=19-	=19-	=19-
!LO:LB:g=original	!	!	!	!	!	!	!	!	!	!	!
*xywh-#12:929,2931,3401,664	*	*	*	*	*	*	*	*	*	*	*
2d\	-ro	4r	.	4D/	-d'io	2f\	-ro	4r	.	4a\	-d'io
.	.	4a\	reſ-	8r	.	.	.	4d\	reſ-	8r	.
.	.	.	.	8D/	reſ-	.	.	.	.	8dd\	reſ-
2r	.	2a\	-pi-	2A\	-pi-	2r	.	2e\	-pi-	2cc#X\	-pi-
1r	.	2a\	-ro	2D/	-ro	2r	.	2f#X\	-ro	1dd	-ro
.	.	1bn\	ſo-	1G\	ſo-	1d\	ſo-	1g\	ſo-	.	.
=20-	=20-	=20-	=20-	=20-	=20-	=20-	=20-	=20-	=20-	=20-	=20-
!	!	!	!	!	!	!LO:SIC:v:t=custos c	!	!	!	!	!
1r	.	.	.	.	.	.	.	.	.	2.g/	ſo-
!	!	!	!	!	!	!LO:LB:g=original	!	!	!	!	!
*	*	*	*	*	*	*xywh-#398:1363,2357,3317,635	*	*	*	*	*
.	.	2ccny\	-lo	2C/	-lo	2c\	-lo	2e\	-lo	.	.
.	.	.	.	.	.	.	.	.	.	4g/	-lo
2cny\	E	4r	.	2F\	E	1r	.	4r	.	1r	.
.	.	4cc\	E	.	.	.	.	4a\	E	.	.
4.f\	ſe	4.cc\	ſe	4.F\	ſe	.	.	4.a\	ſe	.	.
8f\	non	8dd\	non	8F\	non	.	.	8a\	non	.	.
=21-	=21-	=21-	=21-	=21-	=21-	=21-	=21-	=21-	=21-	=21-	=21-
4d\	gli	4b-ny\	gli	4G\	gli	1r	.	4g\	gli	1r	.
!	!	!	!	!LO:SIC:v:t=custos B	!	!	!	!	!	!	!
4f\	mi	4cc\	mi	4A\	mi	.	.	4c/	mi	.	.
!	!	!	!	!LO:LB:g=original	!	!	!	!	!	!	!
*	*	*	*	*xywh-#246:1314,2864,3324,741	*	*	*	*	*	*	*
2d\	do-	2dd\	do-	2B-\	do-	.	.	2fny\	do-	.	.
2f\	-no	4cc\	-no	2F\	-no	4r	.	4a\	-no	4r	.
!	!	!LO:SIC:v:t=custos a	!	!	!	!	!	!	!	!	!
.	.	4a\	E	.	.	4F/	E	4f\	E	4ccny\	E
!	!	!LO:LB:g=original	!	!	!	!	!	!	!	!	!
*	*	*xywh-#94:1022,3416,3413,705	*	*	*	*	*	*	*	*	*
2r	.	4.a\	ſe	2r	.	4.F/	ſe	4.f\	ſe	4.cc\	ſe
.	.	8a\	non	.	.	8F/	non	8f\	non	8dd\	non
=22-	=22-	=22-	=22-	=22-	=22-	=22-	=22-	=22-	=22-	=22-	=22-
1r	.	4dd\	gli	2r	.	4G/	gli	4d\	gli	4b-\	gli
!	!	!	!	!	!	!	!	!LO:SIC:v:t=custos f	!	!LO:SIC:v:t=custos dd	!
.	.	4cc\	mi	.	.	4A/	mi	4f\	mi	4cc\	mi
!	!	!	!	!	!	!	!	!	!	!LO:LB:g=original	!
!	!	!	!	!	!	!	!	!LO:LB:g=original	!	!	!
*	*	*	*	*	*	*	*	*xywh-#550:1230,3470,3345,615	*	*xywh-#702:1224,3455,3336,640	*
.	.	2b-\	don'	4r	.	2B-\	do-	2f\	don'	2dd\	don'-
.	.	.	.	4BB-/	io	.	.	.	.	.	.
4r	.	2a\	io	4F\	gli	2F/	-no	2f\	io	2cc\	-io
4A/	io	.	.	4FF/	m'i-	.	.	.	.	.	.
4A/	gli	4fny/	gli	8FF/	-nu-	2r	.	4c/	gli	4a\	gli
.	.	.	.	8GG/	-o-	.	.	.	.	.	.
4A/	m'i-	4f/	m'i-	8AA/	.	.	.	4c/	m'i-	4cc\	m'i-
.	.	.	.	8BB-/	.	.	.	.	.	.	.
=23-	=23-	=23-	=23-	=23-	=23-	=23-	=23-	=23-	=23-	=23-	=23-
2G/	-nuo-	2e/	-nuo-	2C/	.	4r	.	2c/	-nuo-	2g/	-nuo-
.	.	.	.	.	.	4G/	io	.	.	.	.
4Fny/	-lo	4f/	-lo	2FF/	-lo	4c\	gli	4A/	-lo	2a\	-lo
4f\	/io	4cc\	io	.	.	4C/	m'i-	4a\	io	.	.
4e\	gli	4cc\	gli	1r	.	8C/	-nu-	4g\	gli	1r	.
.	.	.	.	.	.	8D/	-o-	.	.	.	.
4e\	m'i	4cc\	m'i-	.	.	8E/	.	4g\	m'i-	.	.
.	.	.	.	.	.	8F/	.	.	.	.	.
2d\	nuo-	2bn\	-nuo-	.	.	2G/	.	1g\	-nuo-	.	.
=24-	=24-	=24-	=24-	=24-	=24-	=24-	=24-	=24-	=24-	=24-	=24-
2c\	-lo/	1cc	-lo	0r	.	2C/	-le	.	.	2r	.
!	!	!	!	!	!	!LO:SIC:v:t=custos f	!	!	!	!	!
4r	.	.	.	.	.	2F/	E	4c/	-lo	4r	.
!LO:SIC:v:t=custos f	!	!	!	!	!	!	!	!	!	!	!
4A/	E	.	.	.	.	.	.	4f\	E	4cc\	E
!	!	!	!	!	!	!LO:LB:g=original	!	!	!	!	!
!LO:LB:g=original	!	!	!	!	!	!	!	!	!	!	!
*xywh-#12:911,3455,3375,725	*	*	*	*	*	*xywh-#398:1363,2834,3345,705	*	*	*	*	*
4.f\	ſe	2.r	.	.	.	4.F/	ſe	4.a\	ſe	4.cc\	ſe
8f\	non	.	.	.	.	8F/	non	8a\	non	8dd\	non
4d\	gli	.	.	.	.	4G/	gli	4g\	gli	4b-\	gli
4f\	mi	4r	.	.	.	4A/	mi	4c/	mi	4cc\	mi
=25-	=25-	=25-	=25-	=25-	=25-	=25-	=25-	=25-	=25-	=25-	=25-
2d\	do-	2ryy	.	2r	.	2B-\	do-	2f\	do-	2dd\	do-
2f\	-no	4r	.	4r	.	4F/	-no	2a\	-no	4cc\	-no
.	.	4cc\	E	4F\	E	4f\	E	.	.	4a\	E
1r	.	4.cc\	ſe	4.F\	ſe	4.f\	ſe	1r	.	4.a\	ſe
!	!	!LO:SIC:v:t=custos b	!	!	!	!	!	!	!	!	!
.	.	8dd\	non	8F\	non	8f\	non	.	.	8a\	non
!	!	!LO:LB:g=original	!	!	!	!	!	!	!	!	!
*	*	*xywh-#94:1013,3973,3413,731	*	*	*	*	*	*	*	*	*
.	.	4b-\	gli	4G\	gli	4d\	gli	.	.	4dd\	gli
!	!	!	!	!LO:SIC:v:t=custos B	!	!	!	!	!	!	!
.	.	4cc\	mi	4A\	mi	4f\	mi	.	.	4cc\	mi
=26-	=26-	=26-	=26-	=26-	=26-	=26-	=26-	=26-	=26-	=26-	=26-
!	!	!	!	!LO:LB:g=original	!	!	!	!	!	!	!
*	*	*	*	*xywh-#246:1314,3483,3342,671	*	*	*	*	*	*	*
4r	.	2dd\	don'io	2B-\	do-	1f	do-	4r	.	2b-\	don'
4B-\	io	.	.	.	.	.	.	4ryy	.	.	.
!	!	!	!	!	!	!	!	!	!	!LO:SIC:v:t=custos a	!
4f\	gli	2cc\	gli	2F\	-no	.	.	4r	.	2a\	io
!	!	!	!	!	!	!	!	!LO:SIC:v:t=custos f	!	!	!
4F/	'i-	.	.	.	.	.	.	4f\	io	.	.
!	!	!	!	!	!	!	!	!	!	!LO:LB:g=original	!
!	!	!	!	!	!	!	!	!LO:LB:g=original	!	!	!
*	*	*	*	*	*	*	*	*xywh-#550:1223,3995,3324,670	*	*xywh-#702:1224,3997,3323,634	*
8F/	-nuo-	4cc\	m'i-	2r	.	1c	-no	4f\	gli	4a\	gli
8G/	-no	.	.	.	.	.	.	.	.	.	.
8A/	.	4a\	-nuo-	.	.	.	.	4f\	m'i-	4cc\	m'i-
8B-\	.	.	.	.	.	.	.	.	.	.	.
2c\	.	2g/	-lo	4r	.	.	.	2e\	-nuo-	2cc\	-nuo-
.	.	.	.	4C/	io	.	.	.	.	.	.
=27-	=27-	=27-	=27-	=27-	=27-	=27-	=27-	=27-	=27-	=27-	=27-
2F/	lo	4a\	io	4F\	gli	4r	.	4f\	-lo	1cc	-lo
.	.	4f/	gli	4FF/	m'i-	4A/	io	4c/	/io	.	.
2r	.	4f/	m'i-	8FF/	-nu-	4A/	gli	4c/	gli	.	.
.	.	.	.	8GG/	-o-	.	.	.	.	.	.
.	.	4f/	-nuo-	8AA/	.	4A/	m'i-	4c/	m'i-	.	.
.	.	.	.	8BB-/	.	.	.	.	.	.	.
4r	.	2e/	-lo	2C/	.	2G/	-nuo-	2c/	-nuo-	4r	.
4c\	io	.	.	.	.	.	.	.	.	4cc\	io
4f\	gli	8f/	.	2FF/	-lo	4F/	-lo	2A/	-lo/	2cc\	gli
.	.	8g/	.	.	.	.	.	.	.	.	.
!LO:SIC:v:t=custos F	!	!	!	!	!	!LO:SIC:v:t=custos f	!	!	!	!	!
4F/	m'in-	8a\	.	.	.	4f\	io	.	.	.	.
.	.	8b-\	.	.	.	.	.	.	.	.	.
=28-	=28-	=28-	=28-	=28-	=28-	=28-	=28-	=28-	=28-	=28-	=28-
!	!	!	!	!	!	!LO:LB:g=original	!	!	!	!	!
!LO:LB:g=original	!	!	!	!	!	!	!	!	!	!	!
*xywh-#12:929,4015,3384,673	*	*	*	*	*	*xywh-#398:1370,3421,3324,649	*	*	*	*	*
8F/	-uo-	1cc	.	2r	.	4f\	gli	4r	.	2a\	m'i-
8G/	.	.	.	.	.	.	.	.	.	.	.
8A\	.	.	.	.	.	4f\	m-	4ryy	.	.	.
8B-\	.	.	.	.	.	.	.	.	.	.	.
2c\	.	.	.	4r	.	4e\	-i-	4r	.	2g/	-nuo-
.	.	.	.	4C/	io	4c\	-nu-	4e\	io	.	.
4c\	-lo	4r	.	4F\	gli	4F/	-o-	2f\	gli	4a\	-lo
4A/	io	4cc\	io	4FF/	m'i-	4c\	-lo	.	.	4fny/	io
4A/	gli	4cc\	gli	8FF/	-nu-	4C/	io	2c/	m'i-	4f/	gli
.	.	.	.	8GG/	-o-	.	.	.	.	.	.
4c\	m'i-	4a\	m'i-	8AA/	.	8C/	gli	.	.	4f/	m'i-
.	.	.	.	8BB-/	.	8D/	m'i-	.	.	.	.
=29-	=29-	=29-	=29-	=29-	=29-	=29-	=29-	=29-	=29-	=29-	=29-
4.G/	-nuo-	1g	-nuo-	1C	.	4E/	-nu-	1c	-nuo-	4.e/	-nuo-
.	.	.	.	.	.	4F/	-o-	.	.	.	.
16A\	.	.	.	.	.	.	.	.	.	8d/	.
16B-\	.	.	.	.	.	.	.	.	.	.	.
2c\	.	.	.	.	.	2G/	.	.	.	2e/	.
00A	-lo.	00a	-lo.	00FF	-lo.	00F	-lo.	00c	-lo.	00f	-lo.
=30-	=30-	=30-	=30-	=30-	=30-	=30-	=30-	=30-	=30-	=30-	=30-
.	.	.	.	.	.	.	.	.	.	.	.
=31-	=31-	=31-	=31-	=31-	=31-	=31-	=31-	=31-	=31-	=31-	=31-
.	.	.	.	.	.	.	.	.	.	.	.
1ryy	.	4ryy	.	1ryy	.	1ryy	.	4ryy	.	2ryy	.
.	.	2ryy	.	.	.	.	.	2.ryy	.	.	.
.	.	.	.	.	.	.	.	.	.	2ryy	.
.	.	4ryy	.	.	.	.	.	.	.	.	.
=-	=-	=-	=-	=-	=-	=-	=-	=-	=-	=-	=-
*-	*-	*-	*-	*-	*-	*-	*-	*-	*-	*-	*-
!!!system-decoration: s1,s2,s3,s4,s5,s6
!!!ENC: Andrzej Gręziak
!!!END: 2022-06-13
!!!ENC: Urszula Świątek
!!!END: 2022-07-23
!!!ENC-iiif: Jolanta Bujas-Poniatowska
!!!END-iiif: 2022-09-26
